X:1
T: The Miller's Daughter
C:
R:Strathspey
Q: 128
K:D
M:4/4
L:1/16
|:A,2|B,D3 D3B, E3D E3F|A,A,3 B,A,3 D4 D3A,|B,D3 D3B, E3D E3F|A,A,3 B,3A, D6:|
|:B2|DD3 F3D A3F E3B|DD3 F3D A3D F3D|((3G2B2G2) ((3F2d2F2) E3D EF3|A,A,3 B,3A, D6:|
|:f2|dd3 d3B e3d ef3|AA3 B3A d4 d3f|dd3 d3B e3d ef3|AA3 B3A d6:|
|:fg|a3f d3f e3d ef3|agfe d3A d3e f3d|((3g2a2g2) fagf e3d ef3|AA3 B3A d6:|
|:f2|DD3 F3D E4 E3f|DD3 F3A A3B d3e|f3d e3B d3F E3F|A,A,3 B,3A, D6:|
